64x64/apps/chocolate-doom-setup.svg

<svg xmlns="http://www.w3.org/2000/svg" width="64" height="64" version="1">
 <path style="opacity:0.2" d="m 22.18223,24.000734 a 2.1819445,2.4001906 0 0 0 -2.107157,3.023378 l 7.636044,31.199362 A 2.1819445,2.4001906 0 0 0 29.818273,60 h 4.363454 a 2.1819445,2.4001906 0 0 0 2.107158,-1.776526 L 43.924927,27.024112 A 2.1819445,2.4001906 0 0 0 41.81777,24.000734 Z"/>
 <path style="fill:#975a34" d="m 29.62311,3.0050923 c 0.155297,-0.097492 2.206431,1.2185752 4.316538,2.769096 3.089009,2.2698417 5.052109,4.2768157 6.772352,6.9361337 0.42506,0.657164 0.776464,1.341394 1.092534,2.035051 0.183816,0.286492 0.357585,0.580541 0.520763,0.881546 3.340182,6.288873 1.527031,14.225109 -4.049095,17.725643 -5.576128,3.500536 -12.803667,1.239786 -16.143155,-5.049522 -0.153617,-0.289509 -0.298362,-0.584449 -0.430979,-0.886012 -0.161397,-0.283365 -0.339549,-0.55747 -0.477356,-0.84949 -1.892286,-4.01107 -1.507696,-8.305103 0.57785,-11.959668 1.10415,-1.934834 3.317422,-3.907493 4.911174,-4.9127924 1.988291,-1.2541616 2.658556,-3.7905764 2.784587,-5.9962905 0.02016,-0.3530722 0.07828,-0.6645016 0.124697,-0.6936358 z"/>
 <path style="fill:#f1b65c" d="m 22.18223,23.000042 a 2.1819445,2.4002395 0 0 0 -2.107157,3.02344 l 7.636044,31.199998 a 2.1819445,2.4002395 0 0 0 2.107156,1.776562 h 4.363454 a 2.1819445,2.4002395 0 0 0 2.107158,-1.776562 l 7.636042,-31.199998 a 2.1819445,2.4002395 0 0 0 -2.107157,-3.02344 z"/>
 <rect style="opacity:0.2" width="32" height="3" x="16" y="23" rx="1.455" ry="1.5"/>
 <rect style="fill:#ffcf88" width="32" height="3" x="16" y="22" rx="1.455" ry="1.5"/>
 <path style="fill:#f4f4f7;opacity:0.1" d="M 29.623047 3.0058594 C 29.57663 3.0349936 29.518207 3.3461465 29.498047 3.6992188 C 29.372016 5.9049328 28.701182 8.4411509 26.712891 9.6953125 C 25.119139 10.700612 22.906884 12.672588 21.802734 14.607422 C 20.593371 16.726626 19.976578 19.062246 20.023438 21.431641 C 20.14682 19.407427 20.763648 17.428244 21.802734 15.607422 C 22.906884 13.672588 25.119139 11.700612 26.712891 10.695312 C 28.701182 9.4411506 29.372016 6.9049328 29.498047 4.6992188 C 29.518207 4.3461466 29.57663 4.0349936 29.623047 4.0058594 C 29.778344 3.9083674 31.829346 5.2229167 33.939453 6.7734375 C 37.028462 9.0432792 38.992648 11.05162 40.712891 13.710938 C 41.137951 14.368101 41.488618 15.052437 41.804688 15.746094 C 41.988504 16.032586 42.162994 16.325948 42.326172 16.626953 C 43.358362 18.570353 43.895387 20.671482 43.984375 22.75 C 44.048435 20.350585 43.524521 17.883196 42.326172 15.626953 C 42.162994 15.325948 41.988504 15.032586 41.804688 14.746094 C 41.488618 14.052437 41.137951 13.368101 40.712891 12.710938 C 38.992648 10.05162 37.028462 8.0432792 33.939453 5.7734375 C 31.829346 4.2229167 29.778344 2.9083674 29.623047 3.0058594 z"/>
 <g transform="translate(-2,1)">
  <path style="opacity:0.2;fill-rule:evenodd" d="m 64.084582,45.848 a 16,16 0 0 1 -15.958,15.152 16,16 0 0 1 -15.958,-14.848 16,16 0 0 0 -0.042,0.848 16,16 0 0 0 16,16 16,16 0 0 0 16,-16 16,16 0 0 0 -0.042,-1.152 z"/>
  <circle style="fill:#cc5e55" cx="48" cy="46" r="16"/>
  <path style="fill:#f4f4f7" d="m 46,38 -0.1764,2.1072 a 6.2858,6.2858 0 0 0 -1.83704,1.06252 l -1.91518,-0.9018 -2,3.4642 1.73882,1.2076 a 6.2858,6.2858 0 0 0 -0.096,1.06026 6.2858,6.2858 0 0 0 0.0914,1.06474 l -1.73438,1.20312 2,3.4642 1.91072,-0.89956 a 6.2858,6.2858 0 0 0 1.8415,1.0558 l 0.1764,2.1116 h 4 l 0.1764,-2.1072 a 6.2858,6.2858 0 0 0 1.83708,-1.06252 l 1.91516,0.9018 2,-3.4642 -1.73884,-1.2076 a 6.2858,6.2858 0 0 0 0.096,-1.06026 6.2858,6.2858 0 0 0 -0.0914,-1.06474 l 1.73438,-1.20312 -2,-3.4642 -1.91072,0.89956 a 6.2858,6.2858 0 0 0 -1.842,-1.056 l -0.176,-2.112 h -4 z m 2,5.7144 a 2.2858,2.2858 0 0 1 2.286,2.286 A 2.2858,2.2858 0 0 1 48,48.2864 2.2858,2.2858 0 0 1 45.714,46.0004 2.2858,2.2858 0 0 1 48,43.7144 Z"/>
 </g>
</svg>

<svg xmlns="http://www.w3.org/2000/svg" width="64" height="64" version="1"><path style="opacity:.2" d="M22.182 24a2.182 2.4 0 0 0-2.107 3.024l7.636 31.2A2.182 2.4 0 0 0 29.818 60h4.364a2.182 2.4 0 0 0 2.107-1.777l7.636-31.199a2.182 2.4 0 0 0-2.107-3.023z"/><path style="fill:#975a34" d="M29.623 3.005c.155-.097 2.207 1.219 4.317 2.77 3.089 2.269 5.052 4.276 6.772 6.935.425.657.776 1.342 1.093 2.035.183.287.357.58.52.882 3.34 6.289 1.527 14.225-4.049 17.726-5.576 3.5-12.803 1.24-16.143-5.05a13.4 13.4 0 0 1-.43-.886c-.162-.283-.34-.557-.478-.85-1.893-4.01-1.508-8.305.578-11.96 1.104-1.934 3.317-3.907 4.91-4.912 1.989-1.254 2.66-3.79 2.785-5.996.02-.353.079-.665.125-.694z"/><path style="fill:#f1b65c" d="M22.182 23a2.182 2.4 0 0 0-2.107 3.023l7.636 31.2A2.182 2.4 0 0 0 29.818 59h4.364a2.182 2.4 0 0 0 2.107-1.777l7.636-31.2A2.182 2.4 0 0 0 41.818 23z"/><rect style="opacity:.2" width="32" height="3" x="16" y="23" rx="1.455" ry="1.5"/><rect style="fill:#ffcf88" width="32" height="3" x="16" y="22" rx="1.455" ry="1.5"/><path style="fill:#f4f4f7;opacity:.1" d="M29.623 3.006c-.046.029-.105.34-.125.693-.126 2.206-.797 4.742-2.785 5.996-1.594 1.006-3.806 2.978-4.91 4.912-1.21 2.12-1.826 4.455-1.78 6.825.124-2.025.74-4.004 1.78-5.825 1.104-1.934 3.316-3.906 4.91-4.912 1.988-1.254 2.659-3.79 2.785-5.996.02-.353.079-.664.125-.693.155-.098 2.206 1.217 4.316 2.767 3.09 2.27 5.054 4.279 6.774 6.938.425.657.776 1.341 1.092 2.035.184.287.358.58.521.881a14.358 14.358 0 0 1 1.658 6.123c.064-2.4-.46-4.867-1.658-7.123a13.891 13.891 0 0 0-.521-.88 15.714 15.714 0 0 0-1.092-2.036c-1.72-2.66-3.685-4.668-6.774-6.938-2.11-1.55-4.16-2.865-4.316-2.767z"/><g transform="translate(-2 1)"><path style="opacity:.2;fill-rule:evenodd" d="M64.085 45.848A16 16 0 0 1 48.127 61a16 16 0 0 1-15.958-14.848 16 16 0 0 0-.042.848 16 16 0 0 0 16 16 16 16 0 0 0 16-16 16 16 0 0 0-.042-1.152z"/><circle style="fill:#cc5e55" cx="48" cy="46" r="16"/><path style="fill:#f4f4f7" d="m46 38-.176 2.107a6.286 6.286 0 0 0-1.837 1.063l-1.916-.902-2 3.464 1.74 1.208a6.286 6.286 0 0 0-.097 1.06 6.286 6.286 0 0 0 .092 1.065l-1.735 1.203 2 3.464 1.91-.9a6.286 6.286 0 0 0 1.842 1.056L46 54h4l.176-2.107a6.286 6.286 0 0 0 1.837-1.063l1.915.902 2-3.464-1.738-1.208a6.286 6.286 0 0 0 .096-1.06 6.286 6.286 0 0 0-.092-1.065l1.735-1.203-2-3.464-1.911.9a6.286 6.286 0 0 0-1.842-1.057L50 38h-4zm2 5.714A2.286 2.286 0 0 1 50.286 46 2.286 2.286 0 0 1 48 48.286 2.286 2.286 0 0 1 45.714 46 2.286 2.286 0 0 1 48 43.714z"/></g></svg>
